section-2/level.svg

<svg width="32" height="32" viewBox="0 0 32 32" fill="none" xmlns="http://www.w3.org/2000/svg">
<g opacity="0.8" clip-path="url(#clip0_477_73)">
<path d="M15.9995 9.59998C14.8213 9.59998 13.8662 10.5551 13.8662 11.7333V29.8666C13.8662 31.0448 14.8213 32 15.9995 32C17.1777 32 18.1329 31.0448 18.1329 29.8666V11.7333C18.1329 10.5551 17.1777 9.59998 15.9995 9.59998ZM17.0662 29.8666C17.0662 30.4558 16.5887 30.9333 15.9995 30.9333C15.4104 30.9333 14.9329 30.4558 14.9329 29.8666V11.7333C14.9329 11.1442 15.4104 10.6666 15.9995 10.6666C16.5887 10.6666 17.0662 11.1442 17.0662 11.7333V29.8666Z" fill="#212121"/>
<path d="M9.06693 16C7.88873 16 6.93359 16.9551 6.93359 18.1333V29.8667C6.93359 31.0449 7.88873 32 9.06693 32C10.2451 32 11.2003 31.0449 11.2003 29.8667V18.1333C11.2003 16.9551 10.2451 16 9.06693 16ZM10.1336 29.8667C10.1336 30.4558 9.65606 30.9333 9.06693 30.9333C8.47779 30.9333 8.00026 30.4558 8.00026 29.8667V18.1333C8.00026 17.5442 8.47779 17.0667 9.06693 17.0667C9.65606 17.0667 10.1336 17.5442 10.1336 18.1333V29.8667Z" fill="#212121"/>
<path d="M2.13333 23.4667C0.955133 23.4667 0 24.4218 0 25.6V29.8667C0 31.0449 0.955133 32 2.13333 32C3.31153 32 4.26667 31.0449 4.26667 29.8667V25.6C4.26667 24.4218 3.31153 23.4667 2.13333 23.4667ZM3.2 29.8667C3.2 30.4558 2.72247 30.9333 2.13333 30.9333C1.5442 30.9333 1.06667 30.4558 1.06667 29.8667V25.6C1.06667 25.0109 1.5442 24.5333 2.13333 24.5333C2.72247 24.5333 3.2 25.0109 3.2 25.6V29.8667Z" fill="#212121"/>
<path d="M22.9331 3.20001C21.7549 3.20001 20.7998 4.15515 20.7998 5.33335V29.8667C20.7998 31.0449 21.7549 32 22.9331 32C24.1113 32 25.0665 31.0449 25.0665 29.8667V5.33335C25.0665 4.15515 24.1113 3.20001 22.9331 3.20001ZM23.9998 29.8667C23.9998 30.4558 23.5223 30.9333 22.9331 30.9333C22.344 30.9333 21.8665 30.4558 21.8665 29.8667V5.33335C21.8665 4.74421 22.344 4.26668 22.9331 4.26668C23.5223 4.26668 23.9998 4.74421 23.9998 5.33335V29.8667Z" fill="#212121"/>
<path d="M29.8667 0C28.6885 0 27.7334 0.955133 27.7334 2.13333V29.8667C27.7334 31.0449 28.6885 32 29.8667 32C31.0449 32 32.0001 31.0449 32.0001 29.8667V2.13333C32.0001 0.955133 31.0449 0 29.8667 0ZM30.9334 29.8667C30.9334 30.4558 30.4559 30.9333 29.8667 30.9333C29.2776 30.9333 28.8001 30.4558 28.8001 29.8667V2.13333C28.8001 1.5442 29.2776 1.06667 29.8667 1.06667C30.4559 1.06667 30.9334 1.5442 30.9334 2.13333V29.8667Z" fill="#212121"/>
</g>
<defs>
<clipPath id="clip0_477_73">
<rect width="32" height="32" fill="white"/>
</clipPath>
</defs>
</svg>

<svg xmlns="http://www.w3.org/2000/svg" width="32" height="32" fill="none"><g fill="#212121" clip-path="url(#a)" opacity=".8"><path d="M16 9.6a2.133 2.133 0 0 0-2.134 2.133v18.134a2.133 2.133 0 1 0 4.267 0V11.733A2.133 2.133 0 0 0 16 9.6Zm1.066 20.267a1.067 1.067 0 1 1-2.133 0V11.733a1.067 1.067 0 1 1 2.133 0v18.134ZM9.067 16a2.133 2.133 0 0 0-2.133 2.133v11.734a2.133 2.133 0 0 0 4.266 0V18.133A2.133 2.133 0 0 0 9.067 16Zm1.067 13.867a1.067 1.067 0 1 1-2.134 0V18.133a1.067 1.067 0 1 1 2.134 0v11.734ZM2.133 23.467A2.133 2.133 0 0 0 0 25.6v4.267a2.133 2.133 0 0 0 4.267 0V25.6a2.133 2.133 0 0 0-2.134-2.133Zm1.067 6.4a1.067 1.067 0 1 1-2.133 0V25.6a1.067 1.067 0 1 1 2.133 0v4.267ZM22.933 3.2A2.133 2.133 0 0 0 20.8 5.333v24.534a2.133 2.133 0 1 0 4.267 0V5.333A2.133 2.133 0 0 0 22.933 3.2ZM24 29.867a1.067 1.067 0 1 1-2.134 0V5.333a1.067 1.067 0 1 1 2.134 0v24.534ZM29.867 0a2.133 2.133 0 0 0-2.134 2.133v27.734a2.133 2.133 0 1 0 4.267 0V2.133A2.133 2.133 0 0 0 29.867 0Zm1.066 29.867a1.067 1.067 0 1 1-2.133 0V2.133a1.067 1.067 0 1 1 2.133 0v27.734Z"/></g><defs><clipPath id="a"><path fill="#fff" d="M0 0h32v32H0z"/></clipPath></defs></svg>
